sprite/defs.svg

<svg xmlns="http://www.w3.org/2000/svg"><defs><path d="M6 2h20v28l-10-6-10 6z"/><path d="M2 4h4v-2a2 2 0 0 1 4 0v2h12v-2a2 2 0 0 1 4 0v2h4v6h-28m0 2h28v18h-28"/><path d="M0 6h8l2-4h12l2 4h8v22h-32zm9 11a7 7 0 0 0 14 0 7 7 0 0 0-14 0"/><path d="M1 12l15 14 15-14-4-4-11 10-11-10z"/><path d="M20 1l4 4-10 11 10 11-4 4-14-15z"/><path d="M12 1l14 15-14 15-4-4 10-11-10-11z"/><path d="M1 20l15-14 15 14-4 4-11-10-11 10z"/><path d="M32 16a16 12 0 0 0-32 0 16 12 0 0 0 16 12h2l6 4v-6a16 12 0 0 0 8-10"/><path d="M1 14l4-4 8 8 14-14 4 4-18 18z"/><path d="M4 8l4-4 8 8 8-8 4 4-8 8 8 8-4 4-8-8-8 8-4-4 8-8z"/><path d="M7 14a7 7 0 0 0-7 7 7 7 0 0 0 7 7h20a5 5 0 0 0 5-5 5 5 0 0 0-5-5 10 10 0 0 0 1-4 10 10 0 0 0-10-10 10 10 0 0 0-10 10 7 7 0 0 0-1 0"/><path d="M14 0h4l1 6 1.707.707 5.293-3.414 2.707 2.707-3.414 5.293.707 1.707 6 1v4l-6 1-.707 1.707 3.414 5.293-2.707 2.707-5.293-3.414-1.707.707-1 6h-4l-1-6-1.707-.707-5.293 3.414-2.707-2.707 3.414-5.293-.707-1.707-6-1v-4l6-1 .707-1.707-3.414-5.293 2.707-2.707 5.293 3.414 1.707-.707 1-6zm2 10a6 6 0 0 0 0 12 6 6 0 0 0 0-12"/><path d="M4 4h12v4h-8v16h16v-8h4v12h-24zm22-2l4 4-14 14h-4v-4z"/><path d="M8 12h5v-4c0-6 4-7 11-6v5c-4 0-5 0-5 3v2h5l-1 6h-4v12h-6v-12h-5z"/><path d="M4 2v28h24v-20l-8-8z"/><path d="M0 4v24h32v-20h-16l-4-4z"/><path d="M0 16c0-7 6-12 16-12s16 5 16 12-6 12-16 12-16-5-16-12m2 2c0 4 6 6 14 6s14-2 14-6-6-6-14-6-14 2-14 6m4 0a3 3 0 0 0 6 0 3 3 0 0 0-6 0m20 0a3 3 0 0 0-6 0 3 3 0 0 0 6 0"/><path d="M0 10c0-4 3-8 8-8 4 0 7 3 8 4 1-1 4-4 8-4 6 0 8 4 8 8 0 8-14 19-16 20-2-1-16-12-16-20"/><path d="M16 0l16 16h-4v14h-8v-10h-8v10h-8v-14h-4z"/><path d="M16 0a16 16 0 0 1 0 32 16 16 0 0 1 0-32m3 14h-7v4h1v8h6zm-3-8a3 3 0 0 0 0 6 3 3 0 0 0 0-6"/><path d="M22 16v-4a6 6 0 0 0-12 0v4zm-18 0h2v-4a10 10 0 0 1 20 0v4h2v14h-24z"/><path d="M0 6l16 10 16-10zm0 3v17h32v-17l-16 10z"/><path d="M0 24a6 6 0 0 0 12 0v-16h14v10a6 6 0 0 0-8 6 6 6 0 0 0 12 0v-22h-22v16a6 6 0 0 0-8 6"/><path d="M4 4l20 10v-10h4v24h-4v-10l-20 10z"/><path d="M4 4h8v24h-8zm16 0h8v24h-8z"/><path d="M4 12a12 12 0 0 1 24 0c0 8-12 20-12 20s-12-12-12-20m7 0a5 5 0 0 0 10 0 5 5 0 0 0-10 0z"/><path d="M4 4l24 12-24 12z"/><path d="M4 4h4v10l20-10v24l-20-10v10h-4z"/><path d="M12 0a12 12 0 0 0-12 12 12 12 0 0 0 12 12 12 12 0 0 0 6.5-1.75l9.5 9.75 4-4-9.75-9.5a12 12 0 0 0 1.75-6.5 12 12 0 0 0-12-12m0 4a8 8 0 0 1 0 16 8 8 0 0 1 0-16"/><path d="M2 12h6l8-6v20l-8-6h-6z"/><path d="M2 12h6l8-6v20l-8-6h-6z"/><path d="M16 0l5 11 11 1-9 7 3 12-10-6-10 6 3-12-9-7 11-1"/><path d="M0 18l16-16 13 1 1 13-16 16zm20-9a3 3 0 0 0 6 0 3 3 0 0 0-6 0"/><path d="M4 4h6l2-2h8l2 2h6l1 4h-26zm1 6h22l-1 20h-20z"/><path d="M4 8h24l-12 18z"/><path d="M24 4v24l-18-12z"/><path d="M8 4v24l18-12z"/><path d="M4 24h24l-12-18z"/><path d="M5 8a37 37 0 0 0 26 14 13 13 0 0 1 13-16 13 13 0 0 1 10 4 13 13 0 0 0 8-3 13 13 0 0 1-5 7 13 13 0 0 0 7-2 13 13 0 0 1-7 7 37 37 0 0 1-36 39 37 37 0 0 1-21-6 37 37 0 0 0 19-5 16 16 0 0 1-12-9 16 16 0 0 0 6-1 16 16 0 0 1-11-13 16 16 0 0 0 6 2 14 14 0 0 1-3-18"/><path d="M10 8a6 6 0 0 1 12 0v4a6 6 0 0 1-12 0zm-8 18c1-3 8-6 12-6h4c4 0 11 3 12 6v2h-28z"/><path d="M15 0h2l15 29-1 1h-30l-1-1zm4 8h-6l1 12h4zm-3 14a3 3 0 0 0 0 6 3 3 0 0 0 0-6"/></defs></svg>

<svg xmlns="http://www.w3.org/2000/svg"><defs><path d="

    M6 2
    L26 2
    L26 30
    L16 24
    L6 30
    Z

    " id="bookmark">
</path>


<path d="
    M2 4
    L6 4
    L6 2
    A2 2 0 0 1 10 2
    L10 4
    L22 4
    L22 2
    A2 2 0 0 1 26 2
    L26 4
    L30 4
    L30 10
    L2 10

    M2 12
    L30 12
    L30 30
    L2 30
    " id="calendar">
</path>


<path d="

    M0 6
    L8 6
    L10 2
    L22 2
    L24 6
    L32 6
    L32 28
    L0 28
    z

    M9 17
    A7 7 0 0 0 23 17
    A7 7 0 0 0 9 17

    " id="camera">
</path>


<path d="M1 12 L16 26 L31 12 L27 8 L16 18 L5 8 z" id="carat-down">
</path>

<path d="M20 1 L24 5 L14 16 L24 27 L20 31 L6 16 z" id="carat-left">
</path>

<path d="M12 1 L26 16 L12 31 L8 27 L18 16 L8 5 z" id="carat-right">
</path>

<path d="M1 20 L16 6 L31 20 L27 24 L16 14 L5 24 z" id="carat-up">
</path>

<path d="
    M32 16
    A16 12 0 0 0 0 16
    A16 12 0 0 0 16 28
    L18 28
    L24 32
    L24 26
    A16 12 0 0 0 32 16

    " id="chat">
</path>


<path d="M1 14 L5 10 L13 18 L27 4 L31 8 L13 26 z" id="check">
</path>

<path d="M4 8 L8 4 L16 12 L24 4 L28 8 L20 16 L28 24 L24 28 L16 20 L8 28 L4 24 L12 16 z" id="close">
</path>

<path d="
    M7 14
    A7 7 0 0 0 0 21
    A7 7 0 0 0 7 28
    H27
    A5 5 0 0 0 32 23
    A5 5 0 0 0 27 18
    A10 10 0 0 0 28 14
    A10 10 0 0 0 18 4 
    A10 10 0 0 0 8 14
    A7 7 0 0 0 7 14
    " id="cloud">
</path>


<path d="
    M14 0
    H18
    L19 6
    L20.707 6.707
    L26 3.293
    L28.707 6
    L25.293 11.293
    L26 13
    L32 14
    V18
    L26 19
    L25.293 20.707
    L28.707 26
    L26 28.707
    L20.707 25.293
    L19 26
    L18 32
    L14 32
    L13 26
    L11.293 25.293
    L6 28.707
    L3.293 26
    L6.707 20.707
    L6 19
    L0 18
    L0 14
    L6 13
    L6.707 11.293
    L3.293 6
    L6 3.293
    L11.293 6.707
    L13 6
    L14 0
    z
    M16 10
    A6 6 0 0 0 16 22
    A6 6 0 0 0 16 10
  " id="cog">
</path>

<path d="
    M4 4 L16 4 L16 8 L8 8 L8 24 L24 24 L24 16 L28 16
    L28 28 L4 28 z
    M26 2 L30 6 L16 20 L12 20 L12 16 z
  " id="compose">
</path>

<path d="
      M8 12 L13 12 L13 8
      C13 2 17 1 24 2
      L24 7
      C20 7 19 7 19 10
      L19 12 L24 12 L23 18
      L19 18 L19 30 L13 30
      L13 18 L8 18 z
    " id="facebook">
</path>

<path d="
    M4 2
    L4 30
    L28 30
    L28 10 
    L20 2
    Z
    " id="file">
    <!--
    M19 4
    L26 11 
    L19 11 
    z
    -->
</path>


<path d="
    M0 4
    L0 28
    L32 28
    L32 8
    L16 8
    L12 4
    z
    " id="folder">
</path>


<path d="
    M0 16
    C0 9 6 4 16 4
    C26 4 32 9 32 16
    C32 23 26 28 16 28
    C6 28 0 23 0 16
    M2 18
    C2 22 8 24 16 24
    C24 24 30 22 30 18
    C30 14 24 12 16 12
    C8 12 2 14 2 18
    M6 18
    A3 3 0 0 0 12 18
    A3 3 0 0 0 6 18
    M26 18
    A3 3 0 0 0 20 18
    A3 3 0 0 0 26 18
    " id="github">
  <path d="
    M2 10 L5 0 L12 6
    M30 10 L27 0 L20 6
  ">
</path></path>




<path d="
    M0 10
    C0 6, 3 2, 8 2
    C12 2, 15 5, 16 6
    C17 5, 20 2, 24 2
    C30 2, 32 6, 32 10
    C32 18, 18 29, 16 30
    C14 29, 0 18, 0 10
  " id="heart">
</path>


<path d="
      M16 0
      L32 16
      L28 16
      L28 30
      L20 30
      L20 20
      L12 20
      L12 30
      L4 30
      L4 16
      L0 16
      Z
    " id="home">
</path>

<path d="
    M16 0
    A16 16 0 0 1 16 32
    A16 16 0 0 1 16 0

    M19 14
    L12 14
    L12 18
    L13 18
    L13 26
    L19 26
    z

    M16 6
    A3 3 0 0 0 16 12
    A3 3 0 0 0 16 6
    " id="info">
    <!--
    M16 4
    A4 4 0 0 0 16 12
    A4 4 0 0 0 16 4
    -->
</path>


<path d="

    M22 16
    L22 12
    A6 6 0 0 0 10 12
    L10 16
    z

    M4 16
    L6 16
    L6 12
    A10 10 0 0 1 26 12
    L26 16
    L28 16
    L28 30
    L4 30
    z

    " id="lock">
</path>


<path d="
    M0 6
    L16 16
    L32 6
    z
    M0 9
    L0 26
    L32 26
    L32 9
    L16 19 
    z

    " id="mail">
</path>


<path d="

    M0 24
    A6 6 0 0 0 12 24
    V8
    H26
    V18
    A6 6 0 0 0 18 24
    A6 6 0 0 0 30 24
    V2
    H8
    V18
    A6 6 0 0 0 0 24

    " id="music-note">
</path>

    <!--
    A2 2 0 0 0 28 24
    -->

<path d="M4 4 L24 14 V4 H28 V28 H24 V18 L4 28 z" id="next">
</path>

<path d="M4 4 H12 V28 H4 z M20 4 H28 V28 H20 z" id="pause">
</path>

<path d="
    M4 12
    A12 12 0 0 1 28 12
    C28 20, 16 32, 16 32
    C16 32, 4 20 4 12
    M11 12
    A5 5 0 0 0 21 12
    A5 5 0 0 0 11 12
    Z" id="pin">
</path>


<path d="M4 4 L28 16 L4 28 z" id="play">
</path>

<path d="M4 4 H8 V14 L28 4 V28 L8 18 V28 H4 z" id="previous">
</path>

<path d="
    M12 0
    A12 12 0 0 0 0 12
    A12 12 0 0 0 12 24
    A12 12 0 0 0 18.5 22.25
    L28 32
    L32 28
    L22.25 18.5
    A12 12 0 0 0 24 12
    A12 12 0 0 0 12 0
    M12 4
    A8 8 0 0 1 12 20
    A8 8 0 0 1 12 4
    " id="search">
</path>


<path d="
    M2 12
    L8 12
    L16 6
    L16 26
    L8 20
    L2 20
    z
    " id="speaker-volume">

  <!--
  <path fill="none" stroke="red" stroke-width="4" opacity="0"
    d="
      M20 10 
      A8 8 0 0 1 20 22
      M26 6
      A14 14 0 0 1 26 26
    "/>
    -->

  <path d="
      M32 16
      A16 16 0 0 1 27.5 27.5
      L24.5 24.5
      A12 12 0 0 0 28 16
      A12 12 0 0 0 24.5 7.5
      L27.5 4.5
      A16 16 0 0 1 32 16

      M25 16
      A8 8 0 0 1 22 22
      L19.5 19.5
      A4 4 0 0 0 21 16
      A4 4 0 0 0 19.5 12.5
      L22 10
      A8 8 0 0 1 25 16
    ">

</path></path>


<path d="

    M2 12
    L8 12
    L16 6
    L16 26
    L8 20
    L2 20
    z

    " id="speaker">
</path>


<path d="
    M16 0
    L21 11 
    L32 12
    L23 19
    L26 31
    L16 25
    L6 31
    L9 19
    L0 12
    L11 11
  " id="star">
</path>

<path d="

    M0 18
    L16 2
    L29 3
    L30 16
    L14 32
    z

    M20 9
    A3 3 0 0 0 26 9
    A3 3 0 0 0 20 9

    " id="tag">
</path>


<path d="

    M4 4
    L10 4
    L12 2
    L20 2
    L22 4
    L28 4
    L29 8
    L3 8
    z

    M5 10
    L27 10
    L26 30
    L6 30
    z

    " id="trash">
</path>


<path d="M4 8 H28 L16 26 z" id="triangle-down">
</path>

<path d="M24 4 V28 L6 16 z" id="triangle-left">
</path>

<path d="M8 4 V28 L26 16 z" id="triangle-right">
</path>

<path d="M4 24 H28 L16 6 z" id="triangle-up">
</path>

<path d="
    M5 8
    a37 37 0 0 0 26 14
    a13 13 0 0 1 13 -16
    a13 13 0 0 1 10 4
    a13 13 0 0 0 8 -3
    a13 13 0 0 1 -5 7
    a13 13 0 0 0 7 -2
    a13 13 0 0 1 -7 7
    a37 37 0 0 1 -36 39
    a37 37 0 0 1 -21 -6
    a37 37 0 0 0 19 -5
    a16 16 0 0 1 -12 -9
    a16 16 0 0 0 6 -1
    a16 16 0 0 1 -11 -13
    a16 16 0 0 0 6 2
    a14 14 0 0 1 -3 -18
  " id="twitter">
</path>

<path d="
    M10 8
    A6 6 0 0 1 22 8
    L22 12
    A6 6 0 0 1 10 12
    z
    M2 26
    C3 23 10 20 14 20
    L18 20
    C22 20 29 23 30 26
    L30 28
    L2 28
    z
  " id="user">
</path>

<path d="
    M15 0
    H17
    L32 29
    L31 30
    L1 30
    L0 29
    z

    M19 8
    L13 8
    L14 20
    L18 20
    z

    M16 22
    A3 3 0 0 0 16 28
    A3 3 0 0 0 16 22
    " id="warning">
</path>

</defs></svg>
